libs/ui/packages/crypto-icons/src/svg/COQUI.svg

<svg width="24" height="24" viewBox="0 0 24 24" fill="none">
<path fill-rule="evenodd" clip-rule="evenodd" d="M19.3647 11.0363C18.7744 11.0641 18.1819 11.0986 17.5917 11.0776C17.0622 11.0581 16.5349 10.9703 16.0069 10.9088C15.9523 10.8996 15.9013 10.8757 15.8592 10.8398C14.9854 10.1236 14.1267 9.39081 13.3737 8.54256C13.0992 8.23281 12.8772 7.89831 12.7527 7.49181C12.5854 6.94356 11.8827 6.73281 11.3622 7.05006C10.8162 7.38306 10.7224 8.15781 11.1822 8.60181C11.2636 8.68273 11.3642 8.74158 11.4747 8.77281C11.8722 8.86881 12.1797 9.10581 12.4699 9.37431C12.9904 9.85506 13.4569 10.3868 13.9099 10.9313C14.0397 11.0866 13.9737 11.2666 13.7749 11.2891C13.4674 11.3251 13.1577 11.3573 12.8479 11.3701C12.2644 11.3941 11.6802 11.4173 11.0959 11.4113C10.7697 11.4076 10.4419 11.3573 10.1187 11.3033C9.96625 11.2736 9.82059 11.2161 9.68891 11.1338C9.25466 10.8736 8.80466 11.0513 8.55416 11.3078C8.40281 11.4629 8.3062 11.6631 8.27899 11.878C8.25178 12.093 8.29547 12.3109 8.40341 12.4988C8.61191 12.8558 9.02291 13.0643 9.39191 12.9863C9.49841 12.9638 9.60341 12.9166 9.69791 12.8618C9.94541 12.7208 10.2139 12.6548 10.4914 12.6376C10.9369 12.6106 11.3854 12.5851 11.8317 12.5956C12.3994 12.6091 12.9672 12.6593 13.5349 12.6946C13.6122 12.6998 13.6902 12.7036 13.7667 12.7156C13.9797 12.7501 14.0412 12.9203 13.9002 13.0876C13.7307 13.2886 13.5672 13.4963 13.3842 13.6838C12.9992 14.0784 12.6079 14.4667 12.2104 14.8486C12.03 15.0211 11.8064 15.1418 11.5632 15.1981C11.0712 15.3158 10.8282 15.7906 10.8972 16.2706C10.9662 16.7476 11.3922 17.1061 11.8744 17.1068C12.3214 17.1068 12.6649 16.8683 12.7842 16.4408C12.9064 16.0013 13.1884 15.6698 13.4824 15.3466C14.2077 14.5508 15.0229 13.8511 15.8547 13.1716C15.9033 13.1321 15.9615 13.1062 16.0234 13.0966C16.4442 13.0418 16.8649 12.9736 17.2872 12.9473C17.7633 12.9164 18.2406 12.9099 18.7174 12.9278C19.2147 12.9481 19.7097 13.0133 20.2197 13.0606C20.2107 13.2331 20.2084 13.3801 20.1949 13.5256C20.1034 14.4706 19.8627 15.3758 19.4179 16.2166C18.3199 18.2903 16.6264 19.5886 14.3352 20.0948C13.8216 20.2033 13.2977 20.2549 12.7729 20.2486C12.2142 20.2478 11.6554 20.2531 11.0967 20.2471C9.54791 20.2306 8.13116 19.7896 6.87041 18.8866C5.35316 17.7991 4.37291 16.3388 3.95141 14.5171C3.8567 14.1102 3.80045 13.6954 3.78341 13.2781C3.748 12.4896 3.74099 11.7001 3.76241 10.9111C3.80814 9.32919 4.36166 7.80401 5.34114 6.56101C6.32063 5.31802 7.67408 4.42319 9.20141 4.00881C9.81181 3.8424 10.4415 3.75717 11.0742 3.75531C11.7222 3.75306 12.3694 3.74331 13.0167 3.75831C14.5662 3.79431 15.9739 4.26681 17.2189 5.19231C18.7077 6.29856 19.6549 7.76631 20.0539 9.57906C20.1507 10.0141 20.1844 10.4626 20.2497 10.9268C19.9272 10.9681 19.6474 11.0228 19.3647 11.0363Z" fill="#71C800"/>
</svg>

<svg width="24" height="24" viewBox="0 0 24 24" fill="none"><path fill="#71c800" fill-rule="evenodd" d="M19.365 11.036c-.59.028-1.183.063-1.773.042-.53-.02-1.057-.108-1.585-.17a.3.3 0 0 1-.148-.068c-.874-.716-1.732-1.45-2.485-2.297-.275-.31-.497-.645-.621-1.051-.168-.548-.87-.76-1.39-.442a.993.993 0 0 0-.18 1.552c.08.08.181.14.292.17.397.097.705.334.995.602.52.481.987 1.013 1.44 1.557.13.156.064.336-.135.358-.308.036-.617.068-.927.081a34 34 0 0 1-1.752.041 6.4 6.4 0 0 1-.977-.108 1.3 1.3 0 0 1-.43-.17c-.434-.26-.884-.082-1.135.175a.996.996 0 0 0-.15 1.19c.208.358.619.566.988.488.106-.022.211-.07.306-.124a1.8 1.8 0 0 1 .793-.224c.446-.027.894-.053 1.34-.042.568.013 1.136.063 1.704.099q.116.005.232.02c.213.035.274.205.133.373-.17.2-.333.408-.516.596q-.577.592-1.174 1.165a1.4 1.4 0 0 1-.647.35c-.492.117-.735.592-.666 1.072a.99.99 0 0 0 .977.836c.447 0 .79-.239.91-.666.122-.44.404-.771.698-1.094.726-.796 1.54-1.496 2.373-2.175a.35.35 0 0 1 .168-.075c.421-.055.842-.123 1.264-.15q.715-.045 1.43-.02c.498.021.993.086 1.503.134-.01.172-.012.32-.025.465-.092.945-.332 1.85-.777 2.69-1.098 2.074-2.792 3.373-5.083 3.879a7 7 0 0 1-1.562.154c-.559-.001-1.118.004-1.676-.002-1.55-.016-2.966-.457-4.227-1.36-1.517-1.088-2.497-2.548-2.919-4.37a6.7 6.7 0 0 1-.168-1.239 33 33 0 0 1-.02-2.367A7.37 7.37 0 0 1 9.2 4.01a7.2 7.2 0 0 1 1.873-.254c.648-.002 1.295-.012 1.943.003 1.55.036 2.957.509 4.202 1.434 1.489 1.107 2.436 2.574 2.835 4.387.097.435.13.884.196 1.348-.323.041-.603.096-.885.11" clip-rule="evenodd"/></svg>
